X:7
T:Reel des Accord\'eonistes
C:Marcel Messervier
M:C|
K:D
L:1/8
(FG) |: "D" A2 (df) "G" edcB | "D" ABAG F2 (EF) | "A7" GAGF EuBBuB | "D" ABA(G FD)FG |
"D" A2 (df) "G" edcB | "D" ABAG F2 (EF) | "Em" GFEF "A7" GABc | "D" dfec d2 :|
|: A2 | "G" (3BcB GB d2 (cB) | "D" (3ABA FA dAFA | "A" GECE A,ECE | "D" DEFG A2 FA |
"G" ((3vBcB) (GB) vd2 (cB) | "D" (3ABA FA d2 (cd) | "A" efe(ud cB)AG | FABc "D" d2 :|
|: vdud | "G" dBGd BGdA | "D" FdAF d2 (cd) | "A7" e2 d2 (3cdc (3BcB | "D" ABAG Fuddud |
"G" dBGd BGdA | "D" FdAF d2 (cd) | "A" efe(d cB)AG | "D" FAB(c d2) :|
N: Possibly better in C w/capo2

